X:10
T:Scotland the Brave
C:Traditional
M:4/4
K:HP
%Franks edit
{g}A2{GdGe}A3/2B/2 {gcd}c1{e}A1 {gcd}c1e1|{ag}a2{g}a2 {GdG}a1e1 {gcd}c1{e}A1|{Gdc}d2{g}f3/2d/2 {gcd}c1e1 {gcd}c1{e}A1|{gBd}B2{g}e2{A}e3/2f/2 {g}e3/4d/4c3/4B/4|!
% THis is a good version
%{g}A2{GdGe}A3/2B/2 {gcd}c1{e}A1 {gcd}c1e1|{ag}a2{g}a2 {GdG}a1e1 {gcd}c1{e}A1|{Gdc}d2{g}f3/2d/2 {gcd}c1e1 {gcd}c1{e}A1|{gBd}B2{gef}e2{A}e3/2f/2 {gef}e3/4d/4{gcd}c3/4B/4|!
{g}A2{GdGe}A3/2B/2 {gcd}c1{e}A1 {gcd}c1e1|{ag}a2{g}a2{GdG}a1e1 {gcd}c1{e}A1|{Gdc}d2{g}f3/2d/2 {gcd}c1e1 {gcd}c1{e}A1|{gBd}B2{g}A3/2B/2{G}A2{gcd}c1e1|!
{ag}a2{g}a2{GdG}a1e1 {gce}c1{e}A1|{ag}a2{g}a2{GdG}a1e1 {gcd}c1e1| {ag}a2 {g}a3/2g/2 {a}f2{ag}a3/2g/2 | {a}fa {f}gf {gef}ed {gcd}cB|!
{g}A2{GdGe}A3/2B/2 {gcd}c1{e}A1 {gcd}c1e1|{ag}a2{g}a2{GdG}a1e1 {gcd}c1{e}A1|{Gdc}d2{g}f3/2d/2 {gcd}c1e1 {gcd}c1{e}A1|{gBd}B2{g}A3/2B/2{G}A3x|]

